build/documents/TasksOutline.svg

<svg xmlns="http://www.w3.org/2000/svg" fill="none" viewBox="0 0 24 24" focusable="false"><path d="M0 0H24V24H0z"/><path fill="#74767B" fill-rule="evenodd" d="M20.39 7.52489C21.2283 7.52489 21.2283 8.82489 20.39 8.82489L19 8.82489L19 15.1999L20.39 15.1999C20.749 15.1999 21.04 15.491 21.04 15.8499C21.04 16.2089 20.749 16.4999 20.39 16.4999L19 16.4999L19 17.9999C19 19.6499 17.66 20.9999 16 20.9999L7 20.9999C5.34 20.9999 4 19.6599 4 17.9999L4 6.03491C4 4.37491 5.34 3.03491 7 3.03491L16 3.03491C17.66 3.03491 19 4.37491 19 6.03491L19 7.52489L20.39 7.52489ZM17.7 6.03491C17.7 5.09491 16.94 4.33491 16 4.33491L7 4.33491C6.06 4.33491 5.3 5.09491 5.3 6.03491L5.3 17.9999C5.3 18.9399 6.06 19.6999 7 19.6999L16 19.6999C16.94 19.6999 17.7 18.9399 17.7 17.9999L17.7 6.03491ZM10.8667 8.46676C11.101 8.1948 11.0705 7.78437 10.7985 7.55005C10.5266 7.31572 10.1162 7.34623 9.88183 7.61819L8.74872 8.93329L8.063 8.2966C7.79993 8.05234 7.38865 8.06759 7.14439 8.33067C6.90013 8.59374 6.91538 9.00501 7.17846 9.24928L8.35854 10.345C8.48794 10.4651 8.66065 10.5274 8.83695 10.5176C9.01326 10.5078 9.17798 10.4267 9.29324 10.2929L10.8667 8.46676ZM12.4101 8.95554C12.4101 9.31453 12.7011 9.60554 13.0601 9.60554L15.35 9.60554C15.709 9.60554 16 9.31452 16 8.95554C16 8.59655 15.709 8.30554 15.35 8.30554L13.0601 8.30554C12.7011 8.30554 12.4101 8.59656 12.4101 8.95554ZM6.99744 14.3739C6.99744 13.6559 7.57947 13.0739 8.29744 13.0739L9.69744 13.0739C10.4154 13.0739 10.9974 13.6559 10.9974 14.3739L10.9974 15.7739C10.9974 16.4919 10.4154 17.0739 9.69744 17.0739L8.29744 17.0739C7.57947 17.0739 6.99744 16.4919 6.99744 15.7739L6.99744 14.3739ZM8.29744 14.3739L9.69744 14.3739L9.69744 15.7739L8.29744 15.7739L8.29744 14.3739ZM12.4101 15.0739C12.4101 15.4329 12.7011 15.7239 13.0601 15.7239L15.35 15.7239C15.709 15.7239 16 15.4329 16 15.0739C16 14.7149 15.709 14.4239 15.35 14.4239L13.0601 14.4239C12.7011 14.4239 12.4101 14.7149 12.4101 15.0739Z"/></svg>

<svg xmlns="http://www.w3.org/2000/svg" fill="none" viewBox="0 0 24 24" focusable="false"><path fill="#74767B" fill-rule="evenodd" d="M20.38 7.52c.84 0 .84 1.3 0 1.3H19v6.37h1.38c.36 0 .66.3.66.65 0 .36-.3.65-.66.65H19v1.5c0 1.65-1.35 3-3 3H7c-1.66 0-3-1.34-3-3V6.03c0-1.66 1.34-3 3-3h9c1.65 0 3 1.34 3 3v1.49zM17.7 6.03c0-.94-.77-1.7-1.7-1.7H7c-.94 0-1.7.76-1.7 1.7v11.96c0 .94.76 1.7 1.7 1.7h9c.93 0 1.7-.76 1.7-1.7zm-6.91 1.52c.28.23.31.64.07.91l-1.57 1.83a.661.661 0 0 1-.94.05l-1.18-1.1a.646.646 0 0 1-.03-.91.65.65 0 0 1 .92-.04l.68.64 1.14-1.32c.23-.27.64-.3.91-.06m1.62 1.4c0 .36.29.65.65.65h2.29c.35 0 .65-.29.65-.65s-.3-.65-.65-.65h-2.29c-.36 0-.65.29-.65.65m-5.42 5.42c0-.72.58-1.3 1.3-1.3h1.4c.72 0 1.3.58 1.3 1.3v1.4c0 .72-.58 1.3-1.3 1.3h-1.4c-.72 0-1.3-.58-1.3-1.3zm1.3 0h1.4v1.4h-1.4zm4.12.7c0 .36.29.65.65.65h2.29c.35 0 .65-.29.65-.65s-.3-.65-.65-.65h-2.29c-.36 0-.65.29-.65.65"/></svg>
